src/assets/image/block11/employee-decor1.svg

<svg width="28" height="25" viewBox="0 0 28 25" fill="none" xmlns="http://www.w3.org/2000/svg">
<path d="M3.36583 8.08154L4.97333 21.7503H23.0283L24.6358 8.08154L19.6233 11.4228L14.0008 3.55154L8.37833 11.4228L3.36583 8.08154ZM2.50208 4.50029L7.75083 8.00029L12.9833 0.675286C13.099 0.513248 13.2516 0.381168 13.4286 0.290039C13.6056 0.19891 13.8018 0.151367 14.0008 0.151367C14.1999 0.151367 14.3961 0.19891 14.5731 0.290039C14.75 0.381168 14.9027 0.513248 15.0183 0.675286L20.2508 8.00029L25.5008 4.50029C25.6995 4.36809 25.9319 4.29554 26.1705 4.29121C26.4091 4.28687 26.644 4.35093 26.8474 4.47581C27.0507 4.6007 27.2141 4.78119 27.3181 4.99595C27.4222 5.21072 27.4626 5.45079 27.4346 5.68779L25.3808 23.1465C25.345 23.4506 25.1988 23.7309 24.97 23.9344C24.7413 24.1378 24.4457 24.2502 24.1396 24.2503H3.86208C3.55592 24.2502 3.26041 24.1378 3.03162 23.9344C2.80282 23.7309 2.65665 23.4506 2.62083 23.1465L0.567083 5.68654C0.539333 5.44964 0.57994 5.20975 0.684109 4.99518C0.788279 4.78062 0.951662 4.60033 1.15497 4.47561C1.35828 4.35089 1.59303 4.28694 1.83151 4.29132C2.06998 4.29569 2.30223 4.3682 2.50083 4.50029H2.50208ZM14.0008 16.7503C13.3378 16.7503 12.7019 16.4869 12.2331 16.0181C11.7642 15.5492 11.5008 14.9133 11.5008 14.2503C11.5008 13.5872 11.7642 12.9514 12.2331 12.4825C12.7019 12.0137 13.3378 11.7503 14.0008 11.7503C14.6639 11.7503 15.2998 12.0137 15.7686 12.4825C16.2374 12.9514 16.5008 13.5872 16.5008 14.2503C16.5008 14.9133 16.2374 15.5492 15.7686 16.0181C15.2998 16.4869 14.6639 16.7503 14.0008 16.7503Z" fill="#696FE6"/>
</svg>

<svg width="28" height="25" fill="none" xmlns="http://www.w3.org/2000/svg"><path d="M3.366 8.082 4.973 21.75h18.055l1.608-13.668-5.013 3.34-5.622-7.87-5.623 7.87-5.012-3.34ZM2.502 4.5 7.751 8 12.983.675a1.25 1.25 0 0 1 2.035 0L20.251 8l5.25-3.5a1.25 1.25 0 0 1 1.934 1.188L25.38 23.147a1.25 1.25 0 0 1-1.241 1.103H3.862a1.25 1.25 0 0 1-1.241-1.104L.567 5.686A1.25 1.25 0 0 1 2.501 4.5h.001Zm11.499 12.25a2.5 2.5 0 1 1 0-5 2.5 2.5 0 0 1 0 5Z" fill="#696FE6"/></svg>
